X: 638
T: Elif Dedim Be Dedim
C: Hisarlı Ahmet
O: Turkey
F: http://compmusic.upf.edu/node/140
N: kurdi--turku--agiraksak--elif_dedim--kutahya
N: makam= kurdi
N: form= turku
N: usul= agiraksak = 9/4
M: 9/4
L: 1/16
K: C _B   
Q: 1/4=63
%%MIDI tuningsystem comma53
e2eg {g}fed2 cde2 gf/e/de cdc2 d2B2 A4 A4 A4  | 
w:  ARANAĞME   | 
e2eg {g}fed2 cde2 gf/e/de cdc2 d2B2 A4 A4 A4  | 
w:  ARANAĞME   | 
c2dd d2d2 c2dd d2e2 cdc2 d2B2 A4 A4 A4  | \
w:   | 
cde2 ede2 cde2 gf/e/de ccc2 d2B2 A2B2 c2d2 e2f2  | 
w:   | 
ggg2 fede cde2 fede cdc2 d2B2 A4 A4 A4  | 
w:   | 
z44  | e4e2e2e2fgf2e2dcd2ec3cdB2{c}BABAA4A2G2c{B}ABA  | 
w:  |  SAZ *  *  E lif  *  *  *  de *  *  dim  *  be  *  *  *  de *  *  *  dim_ *  *  am  | 
z36  | A4 z4 g2a6 a3b abg2 abga fgef dec2  | 
w:  |  man   Kız  ben  sa *  *  *  *  na   | 
z2a4=b2 {a}(3f2e2f2 e4 e4 e2e2 e2eg fede cde2  | z44  | 
w:  ne  *  *  de *  *  *  dim   *  *  SAZ  |  | 
e4e2e2e2fgf2e2dcd2ec3cdB2{c}BABAA4A2G2c{B}ABA  | 
w:  SAZ *  *  E lif  *  *  *  de *  *  dim  *  be  *  *  *  de *  *  *  dim_ *  *  am  | 
z36  | A4 z4 g2a6 a3b abg2 abga fgef dec2  | 
w:  |  man   Kız  ben  sa *  *  *  *  na   | 
z2a4=b2 {a}(3f2e2f2 e4 e4 e2e2 e2eg fede cde2  | \
w:  ne  *  *  de *  *  *  dim   *  *  SAZ  | 
e4 e2e2 z2a4a2 a4 {b}abg2 abga fgef dec2  | 
w:  SAZ *  *  Kuş  ka na *  *  *  *  dı   | 
z44  | e2fef2fef3efa3(3g2f2g2e4e6g2e2eddcdec4  | 
w:  |  ka lem_ *  *  *  *  *  *  *  *  ol *  *  *  san_ *  a *  *  man    | 
z56  | {e}f4f2fge4{e}d4c2d2e4fedec4d2e2c2BAB2A2A4A4A2A2  | 
w:  |  *  Ah  ya zıl *  maz  *  *  be *  *  *  *  *  *  nim  der *  *  *  *  *  *  dim    | 
z36  | e4 e2e2 z2a4a2 a4 {b}abg2 abga fgef dec2  | 
w:  |  SAZ *  *  Kuş  ka na *  *  *  *  dı   | 
z44  | e2fef2fef3efa3(3g2f2g2e4e6g2e2eddcdec4  | 
w:  |  ka lem_ *  *  *  *  *  *  *  *  ol *  *  *  san_ *  a *  *  man    | 
z56  | {e}f4f2fge4{e}d4c2d2e4fedec4d2e2c2BAB2A2A4A4A2A2  | 
w:  |  *  Ah  ya zıl *  maz  *  *  be *  *  *  *  *  *  nim  der *  *  *  *  *  *  dim    | 
|


